X:122
T: Ungarische Braut (2-24) S. 73
N: P0897
O: Lothringen
S: PINCK, Louis: Verklingende Weisen, Bd 2, Metz 1928]
R: Brautwerbung]
M: 3/4
L: 1/8
K: F
CCC | F2B2AG | F3
FEF | G2B2AG | F4
CC | F2A2GG | A4
AA | c2BAGF | F2z

